src/images/svg/icon-facebook.svg

<?xml version="1.0" encoding="utf-8"?>
<!-- Generator: Adobe Illustrator 25.3.1, SVG Export Plug-In . SVG Version: 6.00 Build 0)  -->
<svg version="1.1" id="Capa_1" xmlns="http://www.w3.org/2000/svg" xmlns:xlink="http://www.w3.org/1999/xlink" x="0px" y="0px"
	 viewBox="0 0 283.5 283.5" style="enable-background:new 0 0 283.5 283.5;" xml:space="preserve">
<style type="text/css">
	.st0{fill:#FF5A30;}
</style>
<g>
	<g>
		<path class="st0" d="M245,4.1H38.5c-19,0-34.4,15.4-34.4,34.4V245c0,19,15.4,34.4,34.4,34.4h103.3v-94.6h-34.4v-43h34.4v-34.4
			c0-28.5,23.1-51.6,51.6-51.6h34.4v43h-17.2c-9.5,0-17.2-0.9-17.2,8.6v34.4h43l-17.2,43h-25.8v94.6H245c19,0,34.4-15.4,34.4-34.4
			V38.5C279.4,19.5,264,4.1,245,4.1z"/>
	</g>
</g>
</svg>

<svg id="Capa_1" data-name="Capa 1" xmlns="http://www.w3.org/2000/svg" viewBox="0 0 275.3 275.3"><defs><style>.cls-1{fill:#ff5a30;}</style></defs><path class="cls-1" d="M245,4.1H38.5A34.4,34.4,0,0,0,4.1,38.5V245a34.4,34.4,0,0,0,34.4,34.4H141.8V184.8H107.4v-43h34.4V107.4a51.6,51.6,0,0,1,51.6-51.6h34.4v43H210.6c-9.5,0-17.2-.9-17.2,8.6v34.4h43l-17.2,43H193.4v94.6H245A34.4,34.4,0,0,0,279.4,245V38.5A34.4,34.4,0,0,0,245,4.1Z" transform="translate(-4.1 -4.1)"/></svg>
